X: 21111
T: THE NEW BOB REEL
R: reel
B: K\"ohler's Violin Repository, v.2, 1885 p.111 #1
F: http://www.archive.org/details/klersviolinrepos02rugg
Z: 2012 John Chambers <jc:trillian.mit.edu>
M: C|
L: 1/8
K: Bm
|: v(Bc)de f2ea | (cA)(eA) (aA)(ec) | (Bc)de (fa)ea | cAac B/B/Bf2 :|
vB/B/B (b^a) bff^g | (=ab)af (de)fd | (ef)ab (fa)ea | cAac B/B/Bf2 |
B/B/B (b^a) bBbf | (ab)af (de)fd | (ef)ab (fa)ea | cAac B/B/B "_Fine."f2 "D.C."|]

%%sep 2 1 500

